X: 3416
T: The CELTIC SOCIETY'S QUICKSTEP
%R: quickstep, polka, march, reel
B: James Kerr "Merry Melodies" v.3 p.46 #416
Z: 2016 John Chambers <jc:trillian.mit.edu>
M: 2/4
L: 1/16
%%slurgraces yes
%%graceslurs yes
K: A
ue2 |\
A2AA c2BA | c2e2e2a2 | A2AA c2BA | dcBA =GABG |\
A2AA c2BA | c2e2e2=g2 | {Bc}B2AB =GABd | e2A2A2 ::\
e2 |\
a2e2 c2(BA) | c2e2e2g2 | a2e2 c2(BA) |
=g2B2B2g2 |\
a2e2 c2(BA) | c2e2e2=g2 | ({B=c}B2AB) (GA)Bd | e2A2A2e2 |\
a2e2 c2(BA) | c2e2e2g2 | a2e2 c2BA | =g2B2B2g2 |\
a2gf g2fe | f2ed e2dc | B2(AB) =GABd | e2A2A2 :|

%%sep 1 1 500
%%sep 1 1 500

